X: 29113
T: Nell's
R: hornpipe
M: 4/4
K: Gminor
|:d>c|(3BdB F>E D>B,D>F|B,>DF>B d>BF>B|A>Bc>d e>cA>f|(3gbg f>g a>fg>a|b>fd>f B>fd>B|
[1B,>DF>B d>fF>B|A>Bc>d e>cA>c|(3Bdf b2 B2:|2 B,>DF>B d>BF>B|A>Bc>d e>cA>c|B2b2 B2||
|:b2|(3d'd'b d'>b f>bd'>c'|b>df>b d'>bf>b|c'2e'>c' g>c'e'>d'|c'>eg>c' e'>c'g>c'|
b2d'>b f>bd'>d|d>fb>d' d>fb>d'|A>Bc>d e>cA>c|1 B2b2 B2:|2 (3Bdf b2 B2||

